X:821
T:Reel 821
M:4/4
K:Dmaj
L:1/8
AG|F>D (3DDD FEDF| (3FED AF d2cd|B>E (3EEE EFED|EFGA B2Bc|d>D (3DDD FDDE|F>D (3FDD d2cd|Bcde eded|fdec d2|A2|d2cd e2ge|fddf dcAB|e2ef gfed|Beed egfe|d2dc d2ed|Beef g2fg| (3agf  (3gfe fdec|BABc defg|
